X:1
T:Behold the Bridegroom
T:Behold the Bridegroom
T:William Gallio Schell & Barney E. Warren
T:William Gallio Schell, 1893
T:Public Domain Courtesy of the Cyber Hymnal™
T:Public Domain Courtesy of the Cyber Hymnal™
C:William Gallio Schell & Barney E. Warren
Z:Public Domain
Z:Courtesy of the Cyber Hymnal™
%%score ( 1 2 ) ( 3 4 )
L:1/8
Q:1/4=94
M:4/4
K:G
V:1 treble 
V:2 treble 
V:3 bass 
V:4 bass 
V:1
 [DB] | [Gd]2 [DB][DA] [DG]2 [DE][DF] | [EG]2 [CE][CE] [B,D]3 [DB] | %3
w: 1.~We’re|near- ing the clos- ing of|time’s mor- tal year, God’s|
w: 2.~With|oil in their ves- sels the|wise for- ward go, Their|
w: 3.~The|fool- ish go for- ward with-|out an- y oil, They’re|
w: 4.~Lo|now, just at mid- night, the|watch- man they hear, “A-|
w: 5.~The|fool- ish to wise say “Give|us of your oil”; “Not|
w: 6.~Lo,|now comes the Bride- groom, with|an- gel- ic host, All|
 [Ge]2 [Gd][GB] [DG]2 [DG][DB] | [Gd]2 [GB]G [FA]3 [Ac] | [GB]2 [DA][DG] [B,D]2 [DE][DF] | %6
w: king- dom doth now as ten|vir- gins ap- pear, Who|are go- ing for- ward, the|
w: lamps shin- ing bright and their|hearts white as snow; They’re|rea- dy each mo- ment to|
w: just as con- tent- ed as|those who have oil. They|trust in the fu- ture the|
w: wake from your slumb- ers, the|Bride- groom is near”; The|fool- ish to trim their lamps,|
w: so, lest there not be e-|nough for us all; Go|ye to the mer- chants and|
w: those who are rea- dy, go|in- to the feast; The|door be- ing closed, comes the|
 [EG]2 [EA][EB] [Ec]3 [Ed] | [Fe]2 [Gd][GB] [DG]2 [GB]G | [DA]2 [DE][DF] [DG]4 || %9
w: Bride- groom to meet, With|lamps trimmed and burn- ing to|di- rect their feet.|
w: wel- come the Lord, Who|short- ly is com- ing to|take them to God.|
w: oil to sup- ply, They’ll|wake soon to find that their|lamps are burned dry.|
w: quick- ly a- rise, “Our|lamps are gone out,” they all|cry in sur- prise.|
w: buy for your- selves.” A-|las, ’tis too late, they have|just ceased to sell.|
w: fool- ish to knock, “De-|part,” saith the Lord, “I in-|deed know you not.”|
"^Refrain" [GB]4 [GB]3 [GB] | [FA]2 [EG]2 D2 [DG]2 | [Gd]4 [Gd]3 [GB] | [GB]2 G2 [GB]2 [FA]2 | %13
w: ||||
w: ||||
w: Be- hold, the|Bride- groom com- eth,|Be- hold, the|Bride- groom com- eth,|
w: ||||
w: ||||
w: ||||
 [GB]4 [GB]3 [GB] | [FA]2 [EG]2 D2 [DG]2 | [Ge]2 [Ge]2 [Gd]2 [DF]2 | [DA]2 [DG]4 z |] %17
w: ||||
w: ||||
w: Be- hold, the|Bride- groom com- eth,|Go ye out to|meet Him.|
w: ||||
w: ||||
w: ||||
V:2
 x | x8 | x8 | x8 | x3 G x4 | x8 | x8 | x7 G | x8 || x8 | x4 D2 x2 | x8 | x2 G2 x4 | x8 | %14
 x4 D2 x2 | x8 | x7 |] %17
V:3
 G, | [G,B,]2 [G,D][G,C] [G,B,]2 [B,,G,][B,,G,] | [C,G,]2 [C,G,][C,G,] [G,,G,]3 G, | %3
w: ~|~ ~ ~ ~ ~ ~|~ ~ ~ ~ ~|
 [G,C]2 [G,B,][G,D] [G,B,]2 [G,B,][G,B,] | [G,B,]2 [G,D][E,^C] [D,D]3 [D,F,D] | %5
w: ~ ~ ~ ~ ~ ~|~ ~ ~ ~ ~|
 [G,D]2 [G,C][G,B,] G,2 [B,,G,][B,,G,] | [C,G,]2 [C,G,][C,G,] [C,G,]3 [C,G,] | %7
w: ~ ~ ~ ~ ~ ~|~ ~ ~ ~ ~|
 [D,A,]2 [D,B,][D,D] [D,B,]2 [D,D][D,B,] | [D,C]2 [D,C][D,C] [G,,G,B,]4 || %9
w: ~ ~ ~ ~ ~ ~|~ ~ ~ ~|
 [G,D]2 [G,D]>[G,D] [G,D][G,D][G,D][G,D] | [D,C][D,C][E,C][E,C] [D,B,]2 [G,B,]2 | %11
w: Be- hold, the Bride- groom com- eth,|go ye out to meet Him,|
 [G,B,]2 [G,B,]>[G,B,] [G,B,][G,B,][G,B,][G,D] | [G,D][G,D][B,D][B,D] [G,D]2 [D,D]2 | %13
w: Be- hold, the Bride- groom com- eth,|go ye out to meet Him,|
 [G,D]2 [G,D]>[G,D] [G,D][G,D][G,D][G,D] | [D,C][D,C][E,C][E,C] [D,B,]2 [G,B,]2 | %15
w: Be- hold, the Bride- groom com- eth,|go ye out to meet Him,|
 [C,C]2 [C,C]2 [D,B,]2 [D,A,]2 | [D,C]2 [G,,G,B,]4 z |] %17
w: ||
V:4
 G, | x8 | x7 G, | x8 | x8 | x4 G,2 x2 | x8 | x8 | x8 || x8 | x8 | x8 | x8 | x8 | x8 | x8 | x7 |] %17

